X: 42688
T: Whistler Of Rosslea, The
R: reel
M: 4/4
K: Fdorian
CDEF G2 FD|GEFD E~C3|B,CDE F2 EF|GAFG EFDE|
CDEC DEFD|G=ABG cBGF|EF (3GFE FEDF|ECDB, C3 G,|
CDEF G2 FD|GEFD E~C3|B,CDE FDEF|GAFG EFDE|
CDEC DEFD|G=ABG cBGF|EF (3GFE FEDF|ECDB, C3 B|
|:c2 Gc EcGc|cBdB cBG=A|B2 FB DBFB|B=AGF EDB,D|
C~c3 dcGF|EFG=A B3 c|cBGF EF (3GFE|1 FDB,D C3 B:|2 FDB,D C3 G,||

